X:11510
T:Mueira de Carcarosa
R:Mueira
C:Tradicional
S:Msica Tradicional Asturiana, (C) Tello & Tito. Asturies, 2001.
S:http://pagina.de/MusTradAst <telloytito@asturies.org>
O:Carcarosa
A:Asturies
M:6/8
L:1/8
Q:3/8=130
K:C
|:CDE FED|FED E2C|EEE GFE|[1 DED C3:|[2DED E2C|
|CDE FED|FED E2C|EEE GFE|DED C3|
|:G2G G2G|A2B c3 -|cBc d2c|B2A A2G-|
[1 G6:|[2 c2B A2G||
G2A A2G|G2A G2F|E2D C3|
|:EDC B,CD|FED E2C|EDC B,CD|FED C3:|
|:CDE FED|FED E2C|EEE GFE|
[1 DED E2C:|[2 DED C3-|C6||
